X:3095
T:Rallarpolka fr. Västmanland
C:Leif "Pepparn" Pettersson
O:Västmanland
R:Polka
Z:Per Oldberg 2012
N:Bra version på Youtube: http://www.youtube.com/watch?v=x6sOQ_ALOPs
N: Oklart vem som är upphovsman/-kvinna...
M:2/4
L:1/8
Q:1/4=120
K:Cmaj
G | "C"ee/2e/2 ee | d2c2 | "F"FA/2A/2 AA | A2- AB/2A/2 | 
"G7"G>A BA | B2- BB/2A/2 | GG/2A/2 GF | "C"E2"G7"G2 | 
"C"ee/2e/2 ee | d2c2 | "F"FA/2A/2 AA | A2- AB/2A/2 |
"G7"G>A BA | B2- BB/2A/2 | GF ED |1 "C"C2 c :|2 "C"C2 [Cc]G/2B/2 ||
|: [K:Gmaj]"G"dB/2d/2 e>e | dB/2d/2 e>e | d d/4e/4d/4B/4 Ge | "D7"d3 A/2B/2 | 
"D7"cA/2c/2 d>d | cA/2c/2 d>d | f>e d/2c/2B/2A/2 | "G"GF ED | 
"G"dB/2d/2 e>e | dB/2d/2 e>e | d d/4e/4d/4B/4 Ge | "D7"d3 A/2B/2 | 
"D7"cA/2c/2 d>d | cA/2c/2 d>d | f>e d/2c/2B/2A/2 |1 "G"GG G2 :|2 "G"GG G ||
(:musicend:)

(:music:)
